X: 554
T: The Arch Duke Charles's Waltz
%R: waltz
B: "Twenty Four Country Dances for the Year 1805", Tho. Preston, ed. p.237 #2
F: http://folkopedia.efdss.org/images/archive/0/02/20121211105513%21Preston_24_1805.PDF
Z: 2014 John Chambers <jc:trillian.mit.edu>
M: 3/8
L: 1/8
K: C
|:\
CCC | CCC |\
(g/a/g/f/)e | (g/a/g/f/)e |\
[GG,3]GG | [GG,3]GG |\
[GG,](d/c/B/A/) | G3 ::\
(e/f/g).g  | (e/f/g).g |
a>gf/a/ | g2f |\
(e/f/g).g | (e/f/g).g |\
fed | c3 :: [K:F]\
FFF | ccc |\
def | c2A |
BBB | GGG |\
c(d/c/B/c/) | A2c |\
ddd | fed |\
ccc | c2A |\
BBB | dcB |\
Aff | [f3A3] :|
%%begintext align
%% 1st Lady and 2d Gent.n change places 1st Gent.n
%% and 2d Lady do the same. poussette with the 2d Cu.
%% quite round. right and left with the 2d Cu.
%%endtext

%%sep 1 1 500
%%sep 1 1 500
